src/24/panel/network-wireless-acquiring.svg

<svg xmlns="http://www.w3.org/2000/svg" width="24" height="24"><defs><style id="current-color-scheme" type="text/css">.ColorScheme-Text{color:#dfdfdf}</style></defs><path class="ColorScheme-Text" d="M9 12a2 2 0 0 1-2 2 2 2 0 0 1-2-2 2 2 0 0 1 2-2 2 2 0 0 1 2 2zM14 12a2 2 0 0 1-2 2 2 2 0 0 1-2-2 2 2 0 0 1 2-2 2 2 0 0 1 2 2zM19 12a2 2 0 0 1-2 2 2 2 0 0 1-2-2 2 2 0 0 1 2-2 2 2 0 0 1 2 2z" fill="currentColor"/><path class="ColorScheme-Text" d="M12 5C8.95 5 6.08 6.073 4 8l.727 1h14.546L20 8c-2.081-1.927-4.949-3-8-3zM9.092 15L12 19l2.908-4z" opacity=".3" fill="currentColor"/></svg>

<svg xmlns="http://www.w3.org/2000/svg" width="24" height="24" version="1.1">
 <defs>
  <style id="current-color-scheme" type="text/css">
   .ColorScheme-Text { color:#dfdfdf; } .ColorScheme-Highlight { color:#5294e2; }
  </style>
 </defs>
 <path style="fill:currentColor" class="ColorScheme-Text" d="M 9,12 A 2,2 0 0 1 7,14 2,2 0 0 1 5,12 2,2 0 0 1 7,10 2,2 0 0 1 9,12 Z"/>
 <path style="fill:currentColor" class="ColorScheme-Text" d="m 14,12 a 2,2 0 0 1 -2,2 2,2 0 0 1 -2,-2 2,2 0 0 1 2,-2 2,2 0 0 1 2,2 z"/>
 <path style="fill:currentColor" class="ColorScheme-Text" d="m 19,12 a 2,2 0 0 1 -2,2 2,2 0 0 1 -2,-2 2,2 0 0 1 2,-2 2,2 0 0 1 2,2 z"/>
 <path style="opacity:0.3;fill:currentColor" class="ColorScheme-Text" d="M 12,5 C 8.9494,5 6.0806,6.0732 4,8 L 4.7265625,9 H 19.273438 L 20,8 C 17.919,6.0731 15.051,5 12,5 Z M 9.0917969,15 12,19 14.908203,15 Z"/>
</svg>
